svg/fluentui-system-icons/ic_fluent_settings_32_regular.svg

<svg width="32" height="32" viewBox="0 0 32 32" fill="none" xmlns="http://www.w3.org/2000/svg">
<path d="M16 11.0002C13.2386 11.0002 11 13.2388 11 16.0002C11 18.7616 13.2386 21.0002 16 21.0002C18.7614 21.0002 21 18.7616 21 16.0002C21 13.2388 18.7614 11.0002 16 11.0002ZM13 16.0002C13 14.3434 14.3431 13.0002 16 13.0002C17.6569 13.0002 19 14.3434 19 16.0002C19 17.6571 17.6569 19.0002 16 19.0002C14.3431 19.0002 13 17.6571 13 16.0002ZM12.8403 29.6282C13.8754 29.8755 14.936 30.0004 16.0003 30.0002C17.0633 29.9986 18.1225 29.8727 19.1563 29.6252C19.4531 29.555 19.721 29.3947 19.9231 29.1663C20.1252 28.9378 20.2518 28.6524 20.2853 28.3492L20.5202 26.2192C20.5538 25.8682 20.7123 25.541 20.9669 25.2971C21.2214 25.0531 21.5551 24.9087 21.9072 24.8902C22.1404 24.8804 22.3727 24.9242 22.5863 25.0182L24.5412 25.8752C24.728 25.9573 24.9297 25.9997 25.1337 25.9997C25.3377 25.9997 25.5395 25.9573 25.7262 25.8752C25.9104 25.7951 26.0759 25.6776 26.2123 25.5302C27.6568 23.9738 28.735 22.1141 29.3682 20.0872C29.4589 19.794 29.4561 19.4799 29.3602 19.1884C29.2644 18.8969 29.0802 18.6424 28.8333 18.4602L27.1043 17.1852C26.8196 16.978 26.618 16.6762 26.5357 16.3339C26.4535 15.9916 26.4958 15.6311 26.6553 15.3172C26.7622 15.108 26.917 14.9271 27.1073 14.7892L28.8273 13.5182C29.0757 13.3366 29.2611 13.0818 29.3574 12.7894C29.4537 12.4971 29.4561 12.182 29.3642 11.8882C28.7321 9.86098 27.6533 8.00132 26.2073 6.4462C25.9982 6.22264 25.7249 6.06942 25.4251 6.00763C25.1253 5.94584 24.8137 5.97853 24.5332 6.1012L22.5873 6.95721C22.374 7.05019 22.1418 7.09167 21.9095 7.07831C21.6772 7.06495 21.4513 6.9971 21.2501 6.88028C21.0488 6.76346 20.8779 6.60092 20.7511 6.40582C20.6244 6.21072 20.5453 5.98853 20.5202 5.7572L20.2843 3.63721C20.2513 3.33026 20.1228 3.0414 19.9171 2.81125C19.7113 2.5811 19.4386 2.42126 19.1372 2.35422C18.1104 2.12478 17.0624 2.00311 16.0102 1.99121C14.9519 2.00374 13.8976 2.12539 12.8642 2.35422C12.5623 2.42058 12.289 2.5805 12.0833 2.81122C11.8771 3.03978 11.7488 3.328 11.7172 3.63422L11.4802 5.7562C11.4543 5.98787 11.3746 6.21027 11.2473 6.40558C11.12 6.60088 10.9488 6.76366 10.7473 6.88089C10.5458 6.99812 10.3196 7.06654 10.0869 7.08066C9.85422 7.09478 9.62145 7.05422 9.40725 6.96222L7.46126 6.10519C7.27614 6.02628 7.07698 5.98563 6.87574 5.98563C6.67451 5.98563 6.47536 6.02628 6.29025 6.10519C6.1005 6.18482 5.93001 6.30417 5.79025 6.4552C4.34425 8.0122 3.26489 9.87299 2.63125 11.9012C2.54103 12.1942 2.54415 12.508 2.64018 12.7992C2.73621 13.0903 2.92041 13.3444 3.16725 13.5262L4.89225 14.7982C5.17575 15.0068 5.37612 15.3092 5.45778 15.6515C5.53943 15.9939 5.49709 16.3541 5.33825 16.6682C5.2334 16.8767 5.08054 17.0573 4.89225 17.1952L3.16725 18.4702C2.91967 18.6523 2.73507 18.9071 2.63917 19.1991C2.54327 19.4911 2.54085 19.8058 2.63224 20.0992C3.26559 22.1287 4.34496 23.9909 5.79126 25.5492C5.92796 25.6957 6.0934 25.8125 6.27725 25.8922C6.46402 25.9729 6.66532 26.0145 6.86876 26.0145C7.0722 26.0145 7.27348 25.9729 7.46025 25.8922L9.41525 25.0332C9.62848 24.9411 9.86036 24.9002 10.0922 24.914C10.3241 24.9278 10.5495 24.9957 10.7504 25.1125C10.9512 25.2292 11.1219 25.3913 11.2486 25.586C11.3754 25.7806 11.4547 26.0023 11.4802 26.2332L11.7153 28.3592C11.7496 28.6607 11.876 28.9443 12.0773 29.1714C12.2786 29.3985 12.545 29.558 12.8403 29.6282ZM18.3413 27.7622C16.7983 28.0787 15.2072 28.0787 13.6643 27.7622L13.4693 26.0222C13.374 25.171 12.9681 24.3848 12.3292 23.8142C11.8291 23.3738 11.2147 23.0839 10.5568 22.9777C9.89898 22.8715 9.22451 22.9535 8.61125 23.2142L7.00525 23.9142C5.96924 22.7279 5.17199 21.3527 4.65725 19.8642L6.08125 18.8122C6.52119 18.488 6.8788 18.065 7.12526 17.5773C7.37171 17.0895 7.50012 16.5507 7.50012 16.0042C7.50012 15.4577 7.37171 14.9189 7.12526 14.4312C6.8788 13.9434 6.52119 13.5204 6.08125 13.1962L4.65925 12.1472C5.17459 10.6602 5.9718 9.28641 7.00725 8.1012L8.60725 8.80121C9.04825 8.99595 9.52516 9.09611 10.0072 9.09521C10.8657 9.09252 11.6933 8.7744 12.3325 8.20135C12.9718 7.62831 13.3781 6.8403 13.4743 5.98721L13.6683 4.2402C14.4419 4.09065 15.2273 4.01034 16.0152 4.00021C16.7972 4.01013 17.5766 4.0901 18.3443 4.2392L18.5313 5.97922C18.6237 6.83322 19.0286 7.62285 19.6683 8.1962C20.1687 8.63916 20.7848 8.93076 21.4447 9.03699C22.1045 9.14322 22.781 9.05971 23.3952 8.7962L24.9953 8.09622C26.0318 9.28121 26.8294 10.6554 27.3442 12.1432L25.9223 13.1892C25.4801 13.5123 25.1203 13.9351 24.8724 14.4234C24.6244 14.9117 24.4951 15.4516 24.4951 15.9992C24.4951 16.5468 24.6244 17.0867 24.8724 17.575C25.1203 18.0633 25.4801 18.4861 25.9223 18.8092L27.3442 19.8582C26.8292 21.3439 26.0334 22.7168 25.0003 23.9022L23.4002 23.2022C22.8996 22.9794 22.3534 22.8782 21.8062 22.9069C21.259 22.9356 20.7264 23.0934 20.2518 23.3673C19.7773 23.6413 19.3742 24.0237 19.0757 24.4832C18.7772 24.9427 18.5917 25.4663 18.5343 26.0112L18.3413 27.7622Z" fill="#212121"/>
</svg>

<svg xmlns="http://www.w3.org/2000/svg" width="32" height="32"><path d="M16 11a5 5 0 1 0 0 10 5 5 0 0 0 0-10Zm-3 5a3 3 0 1 1 6 0 3 3 0 0 1-6 0Zm-.16 13.628c1.035.247 2.096.372 3.16.372a13.643 13.643 0 0 0 3.156-.375 1.478 1.478 0 0 0 1.13-1.276l.234-2.13a1.471 1.471 0 0 1 2.066-1.2l1.955.856a1.472 1.472 0 0 0 1.671-.345 14.245 14.245 0 0 0 3.156-5.443 1.478 1.478 0 0 0-.535-1.627l-1.729-1.275a1.481 1.481 0 0 1 .003-2.396l1.72-1.27a1.474 1.474 0 0 0 .537-1.63 14.199 14.199 0 0 0-3.157-5.443 1.48 1.48 0 0 0-1.674-.345l-1.946.856a1.483 1.483 0 0 1-2.067-1.2l-.236-2.12a1.476 1.476 0 0 0-1.147-1.283 15.123 15.123 0 0 0-3.127-.363 15.395 15.395 0 0 0-3.146.363 1.469 1.469 0 0 0-1.147 1.28l-.237 2.122a1.493 1.493 0 0 1-2.073 1.206l-1.946-.857a1.493 1.493 0 0 0-1.67.35 14.245 14.245 0 0 0-3.16 5.446 1.478 1.478 0 0 0 .536 1.625l1.725 1.272a1.488 1.488 0 0 1 0 2.397L3.167 18.47a1.477 1.477 0 0 0-.535 1.63 14.253 14.253 0 0 0 3.16 5.45 1.458 1.458 0 0 0 1.077.465c.203 0 .404-.042.591-.123l1.955-.859a1.485 1.485 0 0 1 2.065 1.2l.235 2.126a1.476 1.476 0 0 0 1.125 1.27Zm5.501-1.866a11.638 11.638 0 0 1-4.677 0l-.195-1.74a3.48 3.48 0 0 0-1.14-2.208 3.534 3.534 0 0 0-3.718-.6l-1.606.7a12.237 12.237 0 0 1-2.348-4.05l1.424-1.052a3.488 3.488 0 0 0 0-5.616L4.66 12.147a12.243 12.243 0 0 1 2.348-4.046l1.6.7a3.45 3.45 0 0 0 1.4.294 3.5 3.5 0 0 0 3.467-3.108l.194-1.747c.774-.15 1.56-.23 2.347-.24.782.01 1.562.09 2.33.24l.186 1.74a3.48 3.48 0 0 0 1.137 2.216 3.525 3.525 0 0 0 3.727.6l1.6-.7a12.212 12.212 0 0 1 2.35 4.047l-1.423 1.046a3.48 3.48 0 0 0 0 5.62l1.422 1.05A12.273 12.273 0 0 1 25 23.901l-1.6-.7a3.473 3.473 0 0 0-4.866 2.81l-.193 1.75Z"/></svg>
